picto/bike-right-framed.svg

<svg class="color-immutable" width="30" height="30" viewBox="0 0 30 30" fill="none" xmlns="http://www.w3.org/2000/svg"><path d="M0 30V0H30V30H0Z" fill="#2D327D"/><path d="M25.5 3C26.325 3 27 3.675 27 4.5V25.5C27 26.325 26.325 27 25.5 27H4.5C3.675 27 3 26.325 3 25.5V4.5C3 3.675 3.675 3 4.5 3H25.5ZM25.5 2.625H4.5C3.46613 2.625 2.625 3.46613 2.625 4.5V25.5C2.625 26.5339 3.46613 27.375 4.5 27.375H25.5C26.5339 27.375 27.375 26.5339 27.375 25.5V4.5C27.375 3.46613 26.5339 2.625 25.5 2.625Z" fill="white"/><path d="M13.0152 14.7955L11.2046 15.4287C11.1656 15.4435 11.1227 15.45 11.0809 15.45C10.9556 15.45 10.8395 15.3877 10.7699 15.2839L10.3629 14.6803C10.3296 14.6302 10.3127 14.5717 10.3127 14.5132C10.3127 14.347 10.4466 14.2124 10.612 14.2124H12.9157C13.0821 14.2124 13.2167 14.347 13.2167 14.5132C13.2167 14.6405 13.1351 14.7538 13.0152 14.7955Z" fill="white"/><path d="M19.3507 14.8125H16.725V14.2125H19.3507C19.5161 14.2125 19.65 14.347 19.65 14.5129C19.65 14.678 19.5161 14.8125 19.3507 14.8125Z" fill="white"/><path d="M19.3503 15.787H18.975C18.8095 15.787 18.6747 15.6526 18.6747 15.4874C18.6747 15.3215 18.8095 15.187 18.975 15.187H19.3503C19.5157 15.187 19.6496 15.3215 19.6496 15.4874C19.6497 15.6526 19.5157 15.787 19.3503 15.787Z" fill="white"/><path d="M9.67515 16.6493C7.64632 16.6493 6 18.2954 6 20.325C6 22.3528 7.64632 23.9999 9.67515 23.9999C11.574 23.9999 13.1607 22.5532 13.3344 20.662H14.1167C14.2775 21.0046 14.6222 21.2247 15.0011 21.2247C15.5381 21.2247 15.9755 20.7874 15.9755 20.2498C15.9755 20.0307 15.9021 19.819 15.7664 19.6473L17.7322 16.7245L18.1355 17.3725C17.201 18.067 16.6508 19.1607 16.6508 20.3249C16.6508 22.3527 18.297 23.9998 20.325 23.9998C22.3539 23.9999 24 22.3527 24 20.325C24 18.2954 22.3539 16.6493 20.3251 16.6493C19.7406 16.6493 19.1647 16.7886 18.6454 17.0558L17.9255 15.9H12.0757L11.3557 17.0558C10.8363 16.7886 10.2596 16.6493 9.67515 16.6493ZM17.2501 20.325C17.2501 19.3687 17.695 18.4672 18.4531 17.885L20.0705 20.4829C20.1253 20.571 20.2209 20.625 20.325 20.625C20.4914 20.625 20.6249 20.4904 20.6249 20.325C20.6249 20.2684 20.6092 20.2136 20.5805 20.1663L18.9631 17.5675C19.3868 17.3586 19.8522 17.2499 20.325 17.2499C22.0223 17.2499 23.4008 18.627 23.4008 20.3251C23.4008 22.0224 22.0223 23.4001 20.325 23.4001C18.6278 23.4001 17.2501 22.0222 17.2501 20.325ZM14.7317 19.312L12.8403 16.4997H17.1599L15.2685 19.312C15.1812 19.287 15.0911 19.2749 15.0011 19.2749C14.9092 19.275 14.8189 19.287 14.7317 19.312ZM13.3411 20.0622C13.2638 18.9935 12.7251 18.0112 11.8646 17.3725L12.2687 16.7245L14.2337 19.6473C14.1379 19.7679 14.073 19.9109 14.0433 20.0622H13.3411ZM11.5471 17.885C12.2326 18.4105 12.6656 19.2007 12.7391 20.0622H10.1917L11.5471 17.885ZM9.67515 23.4001C7.9779 23.4001 6.6012 22.0223 6.6012 20.325C6.6012 18.6269 7.9779 17.2498 9.67515 17.2498C10.148 17.2498 10.6143 17.3585 11.0378 17.5674L9.6945 19.7253C9.6891 19.7242 9.6816 19.7242 9.67515 19.7242C9.3444 19.7242 9.07605 19.9934 9.07605 20.3249C9.07605 20.6554 9.34448 20.9248 9.67515 20.9248C9.87383 20.9248 10.0596 20.8263 10.1712 20.662H12.7325C12.5597 22.2199 11.2433 23.4001 9.67515 23.4001Z" fill="white"/></svg>

<svg class="color-immutable" width="30" height="30" viewBox="0 0 30 30" fill="none" xmlns="http://www.w3.org/2000/svg"><g clip-path="url(#a)"><path d="M0 30V0h30v30H0Z" fill="#2D327D"/><path d="M25.5 3c.825 0 1.5.675 1.5 1.5v21c0 .825-.675 1.5-1.5 1.5h-21c-.825 0-1.5-.675-1.5-1.5v-21C3 3.675 3.675 3 4.5 3h21Zm0-.375h-21A1.877 1.877 0 0 0 2.625 4.5v21c0 1.034.841 1.875 1.875 1.875h21a1.877 1.877 0 0 0 1.875-1.875v-21A1.877 1.877 0 0 0 25.5 2.625Z" fill="#fff"/><path d="m13.015 14.796-1.81.633a.374.374 0 0 1-.435-.145l-.407-.604a.302.302 0 0 1 .249-.468h2.304a.3.3 0 0 1 .1.584ZM19.35 14.813h-2.625v-.6h2.626a.3.3 0 0 1 0 .6ZM19.35 15.787h-.375a.3.3 0 0 1 0-.6h.375a.3.3 0 0 1 0 .6ZM9.675 16.65a3.676 3.676 0 0 0 0 7.35 3.674 3.674 0 0 0 3.66-3.338h.782a.976.976 0 1 0 1.65-1.015l1.965-2.923.404.648A3.677 3.677 0 0 0 20.325 24a3.676 3.676 0 0 0 0-7.35c-.584 0-1.16.139-1.68.406l-.72-1.156h-5.85l-.72 1.156a3.675 3.675 0 0 0-1.68-.407Zm7.575 3.675c0-.956.445-1.858 1.203-2.44l1.617 2.598a.3.3 0 1 0 .51-.317l-1.617-2.599a3.078 3.078 0 0 1 4.438 2.758 3.076 3.076 0 0 1-6.15 0Zm-2.518-1.013L12.84 16.5h4.32l-1.892 2.812a.971.971 0 0 0-.536 0Zm-1.39.75a3.68 3.68 0 0 0-1.477-2.69l.404-.648 1.965 2.923a.967.967 0 0 0-.19.415h-.703Zm-1.795-2.177a3.072 3.072 0 0 1 1.192 2.177h-2.547l1.355-2.177ZM9.675 23.4a3.075 3.075 0 1 1 1.363-5.833l-1.344 2.158h-.019a.6.6 0 1 0 .496.937h2.562A3.077 3.077 0 0 1 9.675 23.4Z" fill="#fff"/></g><defs><clipPath id="a"><path fill="#fff" d="M0 0h30v30H0z"/></clipPath></defs></svg>
